src/assets/icons/suspicious.svg

<?xml version="1.0" encoding="UTF-8"?>
<svg width="28px" height="28px" viewBox="0 0 28 28" version="1.1" xmlns="http://www.w3.org/2000/svg" xmlns:xlink="http://www.w3.org/1999/xlink">
    <!-- Generator: Sketch 42 (36781) - http://www.bohemiancoding.com/sketch -->
    <title>report_suspicious</title>
    <desc>Created with Sketch.</desc>
    <defs></defs>
    <g id="Report" stroke="none" stroke-width="1" fill="none" fill-rule="evenodd">
        <g id="MVP-1.1---Report-User" transform="translate(-574.000000, -464.000000)" fill="#333333">
            <g id="Overlay-Report-User" transform="translate(97.000000, 186.000000)">
                <path d="M490.979448,304.278756 C484.197642,304.278756 478.680051,298.761433 478.680051,291.979359 C478.680051,285.197553 484.197642,279.680051 490.979448,279.680051 C497.761255,279.680051 503.278845,285.197553 503.278845,291.979359 C503.278845,298.761433 497.761255,304.278756 490.979448,304.278756 M490.979448,278 C498.700128,278 504.958896,284.25868 504.958896,291.979359 C504.958896,299.700039 498.700128,305.958808 490.979448,305.958808 C483.258768,305.958808 477,299.700039 477,291.979359 C477,284.25868 483.258768,278 490.979448,278 Z M493.042809,294.000461 L490.808519,294.000461 C490.345838,294.000461 489.970715,294.382161 489.970715,294.844931 C489.970715,295.307701 490.345838,295.689401 490.808519,295.689401 L493.042809,295.689401 C493.505579,295.689401 493.880612,295.307701 493.880612,294.844931 C493.880612,294.382161 493.505579,294.000461 493.042809,294.000461 Z M484.008951,288.511734 C484.975736,287.544949 486.542806,287.544949 487.509591,288.511734 C487.85858,288.860722 488.424464,288.860722 488.773452,288.511734 C489.122529,288.162745 489.122529,287.596861 488.773452,287.247873 C487.10869,285.583022 484.409852,285.583022 482.745091,287.247873 C482.396013,287.596861 482.396013,288.162745 482.745091,288.511734 C483.094079,288.860722 483.659963,288.860722 484.008951,288.511734 Z M500.047156,290.533689 L495.030647,290.533689 C494.537032,290.533689 494.136931,290.92899 494.136931,291.422605 C494.136931,291.91622 494.537032,292.311521 495.030647,292.311521 L497.622904,292.311521 L497.622904,293.022298 C497.622904,293.515913 498.018205,293.916014 498.51182,293.916014 C499.005346,293.916014 499.400736,293.515913 499.400736,293.022298 L499.400736,292.311521 L500.047156,292.311521 C500.540771,292.311521 500.940872,291.91622 500.940872,291.422605 C500.940872,290.92899 500.540771,290.533689 500.047156,290.533689 Z M488.243507,290.533689 L483.22691,290.533689 C482.733384,290.533689 482.333283,290.92899 482.333283,291.422605 C482.333283,291.91622 482.733384,292.311521 483.22691,292.311521 L485.800321,292.311521 L485.800321,293.022298 C485.800321,293.515913 486.195622,293.916014 486.689237,293.916014 C487.182764,293.916014 487.578153,293.515913 487.578153,293.022298 L487.578153,292.311521 L488.243507,292.311521 C488.737122,292.311521 489.137223,291.91622 489.137223,291.422605 C489.137223,290.92899 488.737122,290.533689 488.243507,290.533689 Z" id="report_suspicious"></path>
            </g>
        </g>
    </g>
</svg>

<svg width="28" height="28" viewBox="0 0 28 28" xmlns="http://www.w3.org/2000/svg"><g id="Report" fill="none" fill-rule="evenodd"><g id="MVP-1.1---Report-User" transform="translate(-574 -464)" fill="#333"><g id="Overlay-Report-User" transform="translate(97 186)"><path d="M490.98 304.279c-6.782 0-12.3-5.518-12.3-12.3 0-6.781 5.518-12.299 12.3-12.299 6.781 0 12.299 5.518 12.299 12.3 0 6.781-5.518 12.299-12.3 12.299m0-26.279c7.721 0 13.98 6.259 13.98 13.98 0 7.72-6.259 13.979-13.98 13.979-7.72 0-13.979-6.259-13.979-13.98 0-7.72 6.259-13.979 13.98-13.979zm2.064 16h-2.234a.843.843 0 0 0-.838.845c0 .463.375.844.838.844h2.234a.843.843 0 0 0 .838-.844.843.843 0 0 0-.838-.845zm-9.034-5.488a2.475 2.475 0 0 1 3.5 0 .894.894 0 0 0 1.264-1.264 4.262 4.262 0 0 0-6.028 0 .894.894 0 1 0 1.264 1.264zm16.038 2.022h-5.016a.89.89 0 1 0 0 1.778h2.592v.71a.89.89 0 1 0 1.778 0v-.71h.646a.89.89 0 1 0 0-1.778zm-11.803 0h-5.017a.89.89 0 1 0 0 1.778h2.573v.71a.89.89 0 1 0 1.778 0v-.71h.666a.89.89 0 1 0 0-1.778z" id="report_suspicious"/></g></g></g></svg>
